X:833
T:Reel 833
M:4/4
K:Amix
L:1/8
GFED  (3EFG DC|B,G,DG, B,G,G,B,|EDED CDED| (3EFG AF GED2|GFGF ECB,C|D2ED B,CA,B,|EDEF G2AB|cABG AAGA|Beef e2ec|Bede BAGA|Beed f2ec|dcBG EGG2|Beed e2ec|Beed B2A2|Bcdf e2ed|Beed BAA2|BGeG B2AF|BGAG EGAG|Beed Beef|Beec A2
